raws/icons/decors/exit-icon.svg

<svg width="27" height="31" viewBox="0 0 27 31" fill="none" xmlns="http://www.w3.org/2000/svg">
<path d="M0.84375 29.5469C0.84375 30.348 1.41159 31 2.10938 31H19.8281C20.5259 31 21.0938 30.348 21.0938 29.5469V21.3125C21.0938 21.0451 20.9048 20.8281 20.6719 20.8281C20.439 20.8281 20.25 21.0451 20.25 21.3125V29.5469C20.25 29.8133 20.061 30.0312 19.8281 30.0312H2.10938C1.8765 30.0312 1.6875 29.8133 1.6875 29.5469V1.45312C1.6875 1.18672 1.8765 0.96875 2.10938 0.96875H19.8281C20.061 0.96875 20.25 1.18672 20.25 1.45312V9.6875C20.25 9.95487 20.439 10.1719 20.6719 10.1719C20.9048 10.1719 21.0938 9.95487 21.0938 9.6875V1.45312C21.0938 0.651969 20.5259 0 19.8281 0H2.10938C1.41159 0 0.84375 0.651969 0.84375 1.45312V29.5469Z" fill="white"/>
<path d="M22.6117 19.4577C22.6943 19.5527 22.8023 19.5992 22.9103 19.5992C23.0183 19.5992 23.1263 19.5517 23.209 19.4577L25.9352 16.3277C26.0997 16.1388 26.0997 15.8317 25.9352 15.6428L23.209 12.5128C23.0445 12.3239 22.777 12.3239 22.6125 12.5128C22.448 12.7017 22.448 13.0088 22.6125 13.1977L24.6181 15.5004H12.6562C12.4234 15.5004 12.2344 15.7174 12.2344 15.9848C12.2344 16.2521 12.4234 16.4691 12.6562 16.4691H24.6181L22.6117 18.7728C22.4471 18.9617 22.4471 19.2688 22.6117 19.4577Z" fill="white"/>
</svg>

<svg width="27" height="31" fill="none" xmlns="http://www.w3.org/2000/svg"><path d="M.844 29.547c0 .801.568 1.453 1.265 1.453h17.72c.697 0 1.265-.652 1.265-1.453v-8.235c0-.267-.19-.484-.422-.484-.233 0-.422.217-.422.485v8.234c0 .266-.189.484-.422.484H2.11c-.232 0-.421-.218-.421-.484V1.453c0-.266.189-.484.421-.484h17.72c.232 0 .421.218.421.484v8.235c0 .267.189.484.422.484.233 0 .422-.217.422-.485V1.454C21.094.652 20.526 0 19.828 0H2.11C1.412 0 .844.652.844 1.453v28.094z" fill="#fff"/><path d="M22.612 19.458c.082.095.19.141.298.141a.398.398 0 00.299-.141l2.726-3.13a.537.537 0 000-.685l-2.726-3.13a.385.385 0 00-.596 0 .537.537 0 000 .685l2.005 2.302H12.656c-.233 0-.422.217-.422.485 0 .267.19.484.422.484h11.962l-2.006 2.304a.537.537 0 000 .685z" fill="#fff"/></svg>
